X: 3401
T: C'Est L'Amour/The Flirt
P: The Pleasures of the Night
C:A. Bland (24 Country Dances for the year 1792)
R:Jig (8x32)
B:RSCDS 34-1
Z:Anselm Lingnau <anselm@strathspey.org>
M:6/8
L:1/8
K:A
|:e|"A"aec Aec|"D"dff f2 g|"A"aec Aec|"E"BBB B2 g|
    "A"aec Aec|"D"dff fga|"A"edc "E7"BAG|"A"AA"D"A "A"A2:|
|:c|"E"BGE edB|"A"cea ecA|"E"BGE "E7"edB|"A"cee "A7"e2 e|
    "D"fdf agf|"A"ega ecA|"Bm"Bfe "E7"dcB|"A"AA"D"A "A"A2:|
%%center Book34/3401-CEst_LAmour_The_Flirt-AL.abc

%%sep 1 1 500
%%sep 1 1 500

